public/static/img/assets/transfer.svg

<svg xmlns="http://www.w3.org/2000/svg" width="24" height="24" viewBox="0 0 24 24" fill="none">
  <path d="M7 21.5C4.51472 21.5 2.5 19.4853 2.5 17C2.5 14.5147 4.51472 12.5 7 12.5C9.48528 12.5 11.5 14.5147 11.5 17C11.5 19.4853 9.48528 21.5 7 21.5Z" fill="#00A609"/>
  <path d="M3 8C3 5.23858 5.23858 3 8 3H11V5H8C6.34315 5 5 6.34315 5 8V11H3V8Z" fill="#00A609"/>
  <path d="M17 11.4995C14.5147 11.4995 12.5 9.48479 12.5 6.99951C12.5 4.51423 14.5147 2.49951 17 2.49951C19.4853 2.49951 21.5 4.51423 21.5 6.99951C21.5 9.48479 19.4853 11.4995 17 11.4995ZM19 12.9995V15.9995C19 17.6564 17.6569 18.9995 16 18.9995H13V20.9995H16C18.7614 20.9995 21 18.7609 21 15.9995V12.9995H19Z" fill="#00A609"/>
  <path d="M19 13V16C19 17.6569 17.6569 19 16 19H13V21H16C18.7614 21 21 18.7614 21 16V13H19Z" fill="white"/>
</svg>

<svg xmlns="http://www.w3.org/2000/svg" width="24" height="24" fill="none"><path d="M7 21.5a4.5 4.5 0 1 1 0-9 4.5 4.5 0 0 1 0 9ZM3 8a5 5 0 0 1 5-5h3v2H8a3 3 0 0 0-3 3v3H3V8Zm14 3.5a4.5 4.5 0 1 1 0-9 4.5 4.5 0 0 1 0 9Zm2 1.5v3a3 3 0 0 1-3 3h-3v2h3a5 5 0 0 0 5-5v-3h-2Z" fill="#00A609"/><path d="M19 13v3a3 3 0 0 1-3 3h-3v2h3a5 5 0 0 0 5-5v-3h-2Z" fill="#fff"/></svg>
